X:7
T: Pista komám tekereg
M:4/4
L:1/4
K:F
d A d<d | e c A z |
d>A d d | e c A z |
c/B/A/G/ A F | G/A/ B A z |
c/B/A/G/ A F/F/ | G/F/ E D z |
W: Pista komám tekereg,
W: Messze jár és jól keres.
W: Menjen minél messzebb, legyen pénze,
W: Csak maradjon itthon a felesége.
W:
W: Sej, haj, haj, szőlőgally,
W: A hordóban jó bor van.
W: Felhajtom a kancsót akárhányszor,
W: Megcsókollak rózsám, akár százszor.

